resources/images/notification_pause_dark.svg

<?xml version="1.0" encoding="UTF-8" standalone="no"?>
<svg
   xml:space="preserve"
   viewBox="0 0 800 800"
   y="0px"
   x="0px"
   id="Layer_1"
   version="1.1"
   style="enable-background:new 0 0 800 800;"
   xmlns="http://www.w3.org/2000/svg"
   xmlns:svg="http://www.w3.org/2000/svg"
   xmlns:rdf="http://www.w3.org/1999/02/22-rdf-syntax-ns#"
   xmlns:cc="http://creativecommons.org/ns#"
   xmlns:dc="http://purl.org/dc/elements/1.1/"><metadata
   id="metadata15"><rdf:RDF><cc:Work
       rdf:about=""><dc:format>image/svg+xml</dc:format><dc:type
         rdf:resource="http://purl.org/dc/dcmitype/StillImage" /></cc:Work></rdf:RDF></metadata><defs
   id="defs13" />
<style
   id="style2"
   type="text/css">
	.st0{fill:#323a3e;}
</style>
<circle
   style="fill:#3e3e45;fill-opacity:1;stroke-width:7.75552"
   id="path1"
   cx="400"
   cy="400"
   r="322.39999" /><path
   id="path4"
   d="m 317.95173,562.36128 h -60.775 v -330.565 h 60.775 v 330.565 m 48.195,27.88 v -386.24 c 0,-11.22 -9.095,-20.315 -20.315,-20.315 h -116.535 c -11.22,0 -20.315,9.095 -20.315,20.315 v 386.24 c 0,11.22 9.095,20.315 20.315,20.315 h 116.45 c 11.22,0 20.4,-9.095 20.4,-20.315 z"
   class="st0"
   style="stroke-width:0.85;fill:#818183;fill-opacity:1" />


<path
   id="path21"
   d="m 210.06357,199.0892 c 1.10499,-4.08272 3.30912,-7.53117 6.63124,-10.37477 5.42019,-4.63948 2.10678,-4.43387 71.33297,-4.42657 l 62.44927,0.007 3.44194,1.60268 c 4.05635,1.88877 7.75734,5.3977 9.8769,9.36436 l 1.52243,2.84915 v 199.00794 199.00793 l -1.52243,2.84915 c -2.11956,3.96665 -5.82055,7.47559 -9.8769,9.36436 l -3.44194,1.60267 -62.44927,0.007 c -69.78764,0.008 -65.98231,0.26152 -71.72146,-4.79028 -1.69319,-1.4904 -3.87229,-4.37627 -4.9283,-6.52672 l -1.89304,-3.85513 -0.12602,-196.30953 c -0.0987,-153.67069 0.0544,-196.97613 0.70461,-199.37859 z m 77.67539,363.64446 H 318.4334 V 397.11858 231.5035 H 287.73896 257.0445 v 165.61508 165.61508 z"
   style="fill:#818183;fill-opacity:1;stroke-width:0.674603" /><path
   style="fill:#818183;stroke-width:0.85;fill-opacity:1"
   class="st0"
   d="m 533.78507,563.71023 h -60.775 v -330.565 h 60.775 v 330.565 m 48.195,27.88 v -386.24 c 0,-11.22 -9.095,-20.315 -20.315,-20.315 h -116.535 c -11.22,0 -20.315,9.095 -20.315,20.315 v 386.24 c 0,11.22 9.095,20.315 20.315,20.315 h 116.45 c 11.22,0 20.4,-9.095 20.4,-20.315 z"
   id="path4-3" /><path
   style="fill:#818183;fill-opacity:1;stroke-width:0.674603"
   d="m 425.89691,200.43815 c 1.10499,-4.08272 3.30912,-7.53117 6.63124,-10.37477 5.42019,-4.63948 2.10678,-4.43387 71.33297,-4.42657 l 62.44927,0.007 3.44194,1.60268 c 4.05635,1.88877 7.75734,5.3977 9.8769,9.36436 l 1.52243,2.84915 v 199.00794 199.00793 l -1.52243,2.84915 c -2.11956,3.96665 -5.82055,7.47559 -9.8769,9.36436 l -3.44194,1.60267 -62.44927,0.007 c -69.78764,0.008 -65.98231,0.26152 -71.72146,-4.79028 -1.69319,-1.4904 -3.87229,-4.37627 -4.9283,-6.52672 l -1.89304,-3.85513 -0.12602,-196.30953 c -0.0987,-153.67069 0.0544,-196.97613 0.70461,-199.37859 z m 77.67539,363.64446 h 30.69444 V 398.46753 232.85245 H 503.5723 472.87784 v 165.61508 165.61508 z"
   id="path21-9" /></svg>

<svg width="800" height="800" viewBox="0 0 800 800" fill="none" xmlns="http://www.w3.org/2000/svg">
<path d="M400 722.4C578.056 722.4 722.4 578.057 722.4 400C722.4 221.943 578.056 77.6001 400 77.6001C221.943 77.6001 77.5996 221.943 77.5996 400C77.5996 578.057 221.943 722.4 400 722.4Z" fill="#3E3E45"/>
<path d="M317.951 562.362H257.176V231.797H317.951V562.362ZM366.146 590.242V204.002C366.146 192.782 357.051 183.687 345.831 183.687H229.296C218.076 183.687 208.981 192.782 208.981 204.002V590.242C208.981 601.462 218.076 610.557 229.296 610.557H345.746C356.966 610.557 366.146 601.462 366.146 590.242Z" fill="#818183"/>
<path d="M210.064 199.089C211.169 195.006 213.373 191.558 216.695 188.714C222.115 184.075 218.802 184.28 288.028 184.288L350.478 184.295L353.919 185.897C357.976 187.786 361.677 191.295 363.796 195.262L365.319 198.111V397.119V596.127L363.796 598.976C361.677 602.943 357.976 606.452 353.919 608.34L350.478 609.943L288.028 609.95C218.241 609.958 222.046 610.212 216.307 605.16C214.614 603.669 212.434 600.784 211.378 598.633L209.485 594.778L209.359 398.468C209.261 244.798 209.414 201.492 210.064 199.089ZM287.739 562.734H318.434V397.119V231.503H287.739H257.045V397.119V562.734H287.739Z" fill="#818183"/>
<path d="M533.785 563.71H473.01V233.145H533.785V563.71ZM581.98 591.59V205.35C581.98 194.13 572.885 185.035 561.665 185.035H445.13C433.91 185.035 424.815 194.13 424.815 205.35V591.59C424.815 602.81 433.91 611.905 445.13 611.905H561.58C572.8 611.905 581.98 602.81 581.98 591.59Z" fill="#323A3E"/>
<path d="M425.897 200.438C427.002 196.356 429.206 192.907 432.528 190.063C437.948 185.424 434.635 185.63 503.861 185.637L566.311 185.644L569.752 187.247C573.809 189.135 577.51 192.644 579.629 196.611L581.152 199.46V398.468V597.476L579.629 600.325C577.51 604.292 573.809 607.801 569.752 609.689L566.311 611.292L503.861 611.299C434.074 611.307 437.879 611.561 432.14 606.509C430.447 605.018 428.268 602.133 427.212 599.982L425.318 596.127L425.192 399.817C425.094 246.147 425.247 202.841 425.897 200.438ZM503.572 564.083H534.267V398.468V232.853H503.572H472.878V398.468V564.083H503.572Z" fill="#818183"/>
</svg>
